proprietary/assets/icons/gebouwonderdelen/traplift.svg

<svg height="64" viewBox="0 0 64 64" width="64" xmlns="http://www.w3.org/2000/svg"><path d="m0 0h64v64h-64z" fill="none"/><path d="m47 36h-9v9h-9v9h-9v4h13v-9h9v-9h9v-9h8v-4h-12z"/><path d="m8.5156 42.6431c-2.2666 2.2666-3.5156 5.2807-3.5156 8.4868v6.8701h4v-6.8701c0-2.1377.832-4.147 2.3438-5.6577l3.4643-3.4631c-2.1911-.1738-3.806-.4414-4.9577-.7003z"/><path d="m50.1416 6c-3.2051 0-6.2178 1.2476-8.4844 3.5132l-9.3354 9.3321c1.5485.1526 2.7565.9901 3.3864 2.271l8.7771-8.774c1.5108-1.5103 3.5196-2.3423 5.6563-2.3423h8.8584v-4z"/><path d="m7 37.2c0 .8492 1.446 1.4 1.446 1.4s2.8777 1.4 11.554 1.4 11.554-1.4 11.554-1.4 1.446-.5508 1.446-1.4c0-.4263-.0009-4.186-2.8782-4.1988l.0006-.0012h-.0145c-1.2897 0-18.9261 0-20.2158 0h-.0145l.0005.0012c-2.8772.0128-2.8781 3.7725-2.8781 4.1988z"/><path d="m11.0708 25.9536c-.0809 2.82-.0703 5.0464-.0703 5.0464h17.999s.0106-2.2287-.0704-5.0509c4.5602-.5622 5.0709-.8795 5.0709-2.6937 0-1.2456-.6756-2.2554-2.1818-2.2554h-3.1254c-.1215-1.6929-.2904-3.2869-.5266-4.4801-.3831-1.9358-1.7814-3.5048-3.377-3.9277-1.2181-.3228-2.815-.5922-4.7892-.5922s-3.5711.2694-4.7892.5922c-1.5956.4229-2.9939 1.9919-3.377 3.9277-.2361 1.1932-.405 2.7872-.5266 4.4801h-3.1254c-1.5062 0-2.1818 1.0098-2.1818 2.2554 0 1.8142.6124 2.1492 5.0708 2.6982z"/></svg>

<?xml version="1.0" encoding="utf-8"?>
<!-- Generator: Adobe Illustrator 18.1.0, SVG Export Plug-In . SVG Version: 6.00 Build 0)  -->
<svg version="1.2" baseProfile="tiny" xmlns="http://www.w3.org/2000/svg" xmlns:xlink="http://www.w3.org/1999/xlink" x="0px"
	 y="0px" width="64px" height="64px" viewBox="0 0 64 64" xml:space="preserve">
<g id="_x36_4px_Boxes">
	<rect fill="none" width="64" height="64"/>
</g>
<g id="Production">
	<g>
		<polygon points="47,36 38,36 38,45 29,45 29,54 20,54 20,58 33,58 33,49 42,49 42,40 51,40 51,31 59,31 59,27 47,27 		"/>
		<path d="M8.5156,42.6431C6.249,44.9097,5,47.9238,5,51.1299V58h4v-6.8701c0-2.1377,0.832-4.147,2.3438-5.6577l3.4643-3.4631
			c-2.1911-0.1738-3.806-0.4414-4.9577-0.7003L8.5156,42.6431z"/>
		<path d="M50.1416,6c-3.2051,0-6.2178,1.2476-8.4844,3.5132l-9.3354,9.3321c1.5485,0.1526,2.7565,0.9901,3.3864,2.271l8.7771-8.774
			C45.9961,10.832,48.0049,10,50.1416,10H59V6H50.1416z"/>
		<path d="M7,37.2c0,0.8492,1.446,1.4,1.446,1.4S11.3237,40,20,40s11.554-1.4,11.554-1.4S33,38.0492,33,37.2
			c0-0.4263-0.0009-4.186-2.8782-4.1988L30.1224,33h-0.0145c-1.2897,0-18.9261,0-20.2158,0H9.8776l0.0005,0.0012
			C7.0009,33.014,7,36.7737,7,37.2z"/>
		<path d="M11.0708,25.9536C10.9899,28.7736,11.0005,31,11.0005,31h17.999c0,0,0.0106-2.2287-0.0704-5.0509
			C33.4893,25.3869,34,25.0696,34,23.2554C34,22.0098,33.3244,21,31.8182,21h-3.1254c-0.1215-1.6929-0.2904-3.2869-0.5266-4.4801
			c-0.3831-1.9358-1.7814-3.5048-3.377-3.9277C23.5711,12.2694,21.9742,12,20,12s-3.5711,0.2694-4.7892,0.5922
			c-1.5956,0.4229-2.9939,1.9919-3.377,3.9277c-0.2361,1.1932-0.405,2.7872-0.5266,4.4801H8.1818C6.6756,21,6,22.0098,6,23.2554
			C6,25.0696,6.6124,25.4046,11.0708,25.9536z"/>
	</g>
</g>
</svg>
